dist/svg/file-audio-o.svg

<!-- Generated by Trend Micro Style Portal -->
<svg version="1.1" xmlns="http://www.w3.org/2000/svg" width="16" height="16" viewBox="0 0 16 16">
  <title>file-audio-o</title>
  <path fill="rgb(34,34,34)" d="M9.8 7.3c0.6 0.7 1 1.7 1 2.7s-0.4 2-0.9 2.7l-0.9-0.6c0.4-0.6 0.7-1.3 0.7-2.1s-0.3-1.5-0.7-2.1l0.8-0.6zM4 8c-0.5 0-1 0.5-1 1v2c0 0.5 0.5 1 1 1h1.5l2.5 2v-8l-2.5 2h-1.5zM15 4v11c0 0.5-0.5 1-1 1h-12c-0.5 0-1-0.5-1-1v-14c0-0.5 0.5-1 1-1h9l4 4zM11 4h2.6l-2.6-2.6v2.6zM14 5h-4v-4h-8v14h12v-10zM12 10c0 1.3-0.5 2.6-1.3 3.5l0.8 0.6c1-1.1 1.5-2.5 1.5-4.1s-0.6-3-1.5-4.2l-0.8 0.6c0.9 1 1.3 2.3 1.3 3.6z"></path>
</svg>

<svg width="16" height="16" viewBox="0 0 16 16" fill="rgb(34, 34, 34)" xmlns="http://www.w3.org/2000/svg"><title>file-audio-o</title><path d="M9.8 7.3C10.4 8 10.8 9 10.8 10C10.8 11 10.4 12 9.9 12.7L9 12.1C9.4 11.5 9.7 10.8 9.7 10C9.7 9.2 9.4 8.5 9 7.9L9.8 7.3ZM4 8C3.5 8 3 8.5 3 9V11C3 11.5 3.5 12 4 12H5.5L8 14V6L5.5 8H4ZM15 4V15C15 15.5 14.5 16 14 16H2C1.5 16 1 15.5 1 15V1C1 0.5 1.5 0 2 0H11L15 4ZM11 4H13.6L11 1.4V4ZM14 5H10V1H2V15H14V5ZM12 10C12 11.3 11.5 12.6 10.7 13.5L11.5 14.1C12.5 13 13 11.6 13 10C13 8.4 12.4 7 11.5 5.8L10.7 6.4C11.6 7.4 12 8.7 12 10Z" fill="rgb(34, 34, 34)" fill-opacity="1.00"/></svg>
